src/lib/packages/icons/src/assets/line/home-roof-wifi.svg

<svg width="24" height="24" viewBox="0 0 24 24" fill="none" xmlns="http://www.w3.org/2000/svg">
<path d="M21.477 9.08502L14.0649 2.98907C12.8679 2.00707 11.133 2.00607 9.93598 2.98907L2.52399 9.08404C2.20499 9.34704 2.15796 9.81907 2.42096 10.1401C2.68396 10.4611 3.15699 10.5051 3.47699 10.2431L4.24994 9.60711V18.0001C4.24994 20.4181 5.58194 21.7501 7.99994 21.7501H15.9999C18.4179 21.7501 19.7499 20.4181 19.7499 18.0001V9.60711L20.5229 10.2431C20.6629 10.3581 20.8319 10.414 20.9999 10.414C21.2159 10.414 21.4309 10.321 21.5789 10.141C21.8429 9.82005 21.796 9.34802 21.477 9.08502ZM18.2499 18.0001C18.2499 19.5771 17.5769 20.2501 15.9999 20.2501H7.99994C6.42294 20.2501 5.74994 19.5771 5.74994 18.0001V8.37408L10.889 4.14911C11.532 3.62011 12.469 3.62011 13.112 4.14911L18.2509 8.37506V18.0001H18.2499ZM12.9999 16.512C12.9999 17.064 12.5519 17.512 11.9999 17.512C11.4479 17.512 10.9999 17.064 10.9999 16.512C10.9999 15.96 11.4479 15.512 11.9999 15.512C12.5519 15.512 12.9999 15.96 12.9999 16.512ZM14.7039 13.6641C15.0329 13.9141 15.098 14.3851 14.848 14.7151C14.7 14.9091 14.476 15.011 14.249 15.011C14.091 15.011 13.932 14.961 13.796 14.858C12.767 14.076 11.2339 14.076 10.2039 14.858C9.87292 15.11 9.40392 15.0442 9.15192 14.7142C8.90192 14.3842 8.96596 13.9141 9.29596 13.6631C10.853 12.4811 13.1469 12.4811 14.7039 13.6641ZM11.9999 9.75006C13.8329 9.75006 15.604 10.4061 16.989 11.5981C17.302 11.8681 17.3389 12.3421 17.0679 12.6561C16.9199 12.8281 16.7109 12.9171 16.4999 12.9171C16.3259 12.9171 16.1519 12.8572 16.0109 12.7352C14.8989 11.7772 13.4739 11.2501 11.9999 11.2501C10.5259 11.2501 9.10196 11.7772 7.98896 12.7352C7.67596 13.0052 7.20197 12.9701 6.93097 12.6561C6.65997 12.3421 6.69695 11.8681 7.00995 11.5981C8.39595 10.4061 10.1669 9.75006 11.9999 9.75006Z" fill="currentColor"/>
</svg>

<svg xmlns="http://www.w3.org/2000/svg" width="24" height="24" fill="none"><path fill="currentColor" d="m21.477 9.085-7.412-6.096a3.26 3.26 0 0 0-4.129 0L2.524 9.084a.751.751 0 0 0 .953 1.16l.773-.637V18c0 2.418 1.332 3.75 3.75 3.75h8c2.418 0 3.75-1.332 3.75-3.75V9.607l.773.636a.749.749 0 0 0 1.056-.102.75.75 0 0 0-.102-1.056ZM18.25 18c0 1.577-.673 2.25-2.25 2.25H8c-1.577 0-2.25-.673-2.25-2.25V8.374l5.139-4.225a1.755 1.755 0 0 1 2.223 0l5.139 4.226V18h-.001ZM13 16.512a1 1 0 1 1-2 0 1 1 0 0 1 2 0Zm1.704-2.848a.751.751 0 0 1-.455 1.347.748.748 0 0 1-.453-.153c-1.029-.782-2.562-.782-3.592 0a.75.75 0 1 1-.908-1.195c1.557-1.182 3.85-1.182 5.408.001ZM12 9.75c1.833 0 3.604.656 4.989 1.848a.75.75 0 0 1-.978 1.137A6.146 6.146 0 0 0 12 11.25a6.148 6.148 0 0 0-4.011 1.485.75.75 0 0 1-.979-1.137A7.653 7.653 0 0 1 12 9.75Z"/></svg>
